!!!SOCIAL_FUNCTION:	songs with treatment of the sick
!!!PDT:	1943
!!!OTL: No_5_Song_When_Treating_Hemorrhage_From_the_Lungs.krn
!!!REG: British Columbia
**kern
*staff1
=1-
*clefF4
*k[b-e-]
*M2/4
8.r
16c\
8B-\L
16.B-\L
32G\JJk
=2
4.F\
16G\LL
16F\JJ
=3
12D\L
12D\
12F\J
8F\
8r
=4!|:
8.c\L
16c\Jk
12c\L
12B-\
12d\J
=5
8B-\L
24G\K
12F\J
12G\
12r
24B-\LL
24G\JJ
=6||
*M3/4
8F\L
24D\K
12D\J
4D\
8D\
8r
=7||
*M2/4
8.F\L
16F\Jk
12F\L
12D\
12D\J
=8
12D/L
12C/
12C/J
12C/L
12BB-/
12D/J
=9
4.BB-/
8r
=10||
*M3/4
8.BB-/L
16BB-/Jk
8BB-/
16r
16B-\
8B-\L
16B-\L
16G\JJ
=11||
*M2/4
4.F\
8r
=12
12G\L
12D\
12F\J
8F\
8r
=13:|!
8.BB-/L
16BB-/Jk
8BB-/
8r
==
*-
